X:11
T:De tous les coeurs
M:3
L:1/4
K:C
%%staves [1 3]
V:1
c>d!!B | c3 | cef | g2a | !!g2f | !!e2d | c>d!!B | c3 | eef | dg2 | !!^f2g |1 g3 :|2 g3 |:
gab | c'2g | (ag)f | g2{f}e | gfe | de2 | !!B2c | d2G | c>d!!B |1 c3 :|2 c3 |]
V:2
C>F,G, | C,3 | C2F, | E,2F, | E,2D, | C,2G, | C>F,G, | C,>(G,A,/B,/) | CCF, | G,E,C, | D,D,,2 |
G,,>G,A,/B,/ :| G,,>D,E,/F,/ |: G,2F, | E,2E, | F,E,D, | C,2C | E,D,C, | B,,C,2 | G,2C, | G,,2G, | E,>F,G, | C,>CB,/A,/ :| C,3 |]
V:3
c'>fg | c3 | c'2f | e2f | e2d | c2g | c'>fg | c>(ga/2b/2) | c'c'f | gec | dd2 |
G>ga/2b/2 :| G>de/2f/2 |: g2f | e2e | fed | c2c' | edc | Bc2 | g2c | G2g | e>fg | c>c'b/2a/2 :| c3 |]
